assets/icons/task0.svg

<svg width="20" height="20" viewBox="0 0 20 20" fill="none" xmlns="http://www.w3.org/2000/svg">
<mask id="path-1-inside-1_3040_11409" fill="white">
<path fill-rule="evenodd" clip-rule="evenodd" d="M15 2H5C3.34315 2 2 3.34315 2 5V15C2 16.6569 3.34315 18 5 18H15C16.6569 18 18 16.6569 18 15V5C18 3.34315 16.6569 2 15 2ZM5 1C2.79086 1 1 2.79086 1 5V15C1 17.2091 2.79086 19 5 19H15C17.2091 19 19 17.2091 19 15V5C19 2.79086 17.2091 1 15 1H5Z"/>
</mask>
<path d="M5 3H15V1H5V3ZM3 5C3 3.89543 3.89543 3 5 3V1C2.79086 1 1 2.79086 1 5H3ZM3 15V5H1V15H3ZM5 17C3.89543 17 3 16.1046 3 15H1C1 17.2091 2.79086 19 5 19V17ZM15 17H5V19H15V17ZM17 15C17 16.1046 16.1046 17 15 17V19C17.2091 19 19 17.2091 19 15H17ZM17 5V15H19V5H17ZM15 3C16.1046 3 17 3.89543 17 5H19C19 2.79086 17.2091 1 15 1V3ZM2 5C2 3.34315 3.34315 2 5 2V0C2.23858 0 0 2.23858 0 5H2ZM2 15V5H0V15H2ZM5 18C3.34315 18 2 16.6569 2 15H0C0 17.7614 2.23858 20 5 20V18ZM15 18H5V20H15V18ZM18 15C18 16.6569 16.6569 18 15 18V20C17.7614 20 20 17.7614 20 15H18ZM18 5V15H20V5H18ZM15 2C16.6569 2 18 3.34315 18 5H20C20 2.23858 17.7614 0 15 0V2ZM5 2H15V0H5V2Z" fill="#B6B6B6" mask="url(#path-1-inside-1_3040_11409)"/>
</svg>

<svg xmlns="http://www.w3.org/2000/svg" width="20" height="20"><mask id="a"><path fill-rule="evenodd" d="M15 2H5a3 3 0 0 0-3 3v10a3 3 0 0 0 3 3h10a3 3 0 0 0 3-3V5a3 3 0 0 0-3-3M5 1a4 4 0 0 0-4 4v10a4 4 0 0 0 4 4h10a4 4 0 0 0 4-4V5a4 4 0 0 0-4-4z" clip-rule="evenodd"/></mask><path d="M5 3h10V1H5zM3 5a2 2 0 0 1 2-2V1a4 4 0 0 0-4 4zm0 10V5H1v10zm2 2a2 2 0 0 1-2-2H1a4 4 0 0 0 4 4zm10 0H5v2h10zm2-2a2 2 0 0 1-2 2v2a4 4 0 0 0 4-4zm0-10v10h2V5zm-2-2a2 2 0 0 1 2 2h2a4 4 0 0 0-4-4zM2 5a3 3 0 0 1 3-3V0a5 5 0 0 0-5 5zm0 10V5H0v10zm3 3a3 3 0 0 1-3-3H0a5 5 0 0 0 5 5zm10 0H5v2h10zm3-3a3 3 0 0 1-3 3v2a5 5 0 0 0 5-5zm0-10v10h2V5zm-3-3a3 3 0 0 1 3 3h2a5 5 0 0 0-5-5zM5 2h10V0H5z" mask="url(#a)"/></svg>
